X: 1494
T: Nihâvent Seyir
C: Rauf Yektâ
O: Turkey
F: http://compmusic.upf.edu/node/140
N: nihavent--seyir--semai--1--rauf_yekta
N: makam= nihavent
N: form= seyir
N: usul= semai = 3/4
M: 3/4
L: 1/16
K: C _B _e  
Q: 1/4=120
%%MIDI tuningsystem comma53
G8 A4  | B8 c4  | d8 e4  | d8 z4  | e4 d4 c4  | \
w:   |   |   |   |   | 
B8 A4  | B8 c4  | d8 z4  | d8 e4  | f4 e8  | 
w:   |   |   |   |   | 
d8 c4  | B8 z4  | A4 B4 c4  | d4 c4 B4  | A4 G4 ^F4  | \
w:   |   |   |   |   | 
G8 z4  | g8 ^f4  | g8 a4  | b8 a4  | 
w:   |   |   |   | 
g8 z4  | ^f4 g4 a4  | b4 a4 g4  | f8 _7/8e4  | \
w:   |   |   |   | 
d8 z4  | d8 e4  | f8 e4  | d8 c4  | B8 z4  | A4 B4 c4  | 
w:   |   |   |   |   |   | 
d4 c4 B4  | A4 G4 ^F4  | G8 z4  | |


